X:1
T:Star Spangled Banner for Violin and Viola
T:Star Spangled Banner Duet for Violin and Viola
%%score 1 2
L:1/8
Q:1/4=75
M:3/4
K:D
V:1 treble nm="Violin" snm="Vln."
V:2 alto nm="Viola" snm="Vla."
V:1
 A>F | D2 F2 A2 | d4 f>e | d2 F2 ^G2 | A4 AA | f3 e d2 | c4 B>c | d2 d2 A2 | F2 D2 A>F | D2 F2 A2 | %10
 d4 f>e | d2 F2 ^G2 | A4 AA | f3 e d2 | c4 B>c | d2 d2 A2 | F2 D2 f>f | f2 g2 a2 | a4 gf | %19
 e2 f2 g2 | g4 g2 | f3 e d2 | c4 B>c | d2 F2 ^G2 | A4 A2 | d2 d2 dc | B2 B2 B2 | e2 gf ed | %28
 d2 !fermata!c2 AA | d3 e fg | !fermata!a4 de | f3 g e2 | d4 z2 |] %33
V:2
 z2 | D4 C2 | B,4 ^A,2 | B,4 E2 | A,4 A,A, | D2 E2 F2 | A,2 B,2 C2 | D4 A2 | F2 D2 z2 | D4 C2 | %10
 B,4 ^A,2 | B,4 E2 | A,4 A,A, | D2 E2 F2 | A,2 B,2 C2 | D4 A2 | F2 D2 D>D | D2 E2 F2 | F4 ED | %19
 C2 D2 E2 | A,2 B,2 C2 | D4 D2 | A,4 A,2 | D4 ED | C4 AG | F2 D2 F2 | G4 F2 | E2 EF G^G | %28
 A2 !fermata!A2 G2 | F4 E2 | !fermata!F4 DD | A,2 B,2 C2 | D4 z2 |] %33

